outputs/icons/enterprise/tag_round.svg

<svg xmlns="http://www.w3.org/2000/svg" width="1200" height="1200" fill="none"><g clip-path="url(#a)"><path fill="#000" d="m1070.5 579-450-450c-18-18-43-29-70.5-29H200c-55 0-100 45-100 100v350c0 27.5 11 52.5 29.5 71l450 450c18 18 43 29 70.5 29s52.5-11 70.5-29.5l350-350c18.5-18 29.5-43 29.5-70.5s-11.5-53-29.5-71M275 350c-41.5 0-75-33.5-75-75s33.5-75 75-75 75 33.5 75 75-33.5 75-75 75"/></g><defs><clipPath id="a"><path fill="#fff" d="M0 0h1200v1200H0z"/></clipPath></defs></svg>

<svg width="1200" height="1200" viewBox="0 0 1200 1200" fill="none" xmlns="http://www.w3.org/2000/svg"><g clip-path="url(#clip0_238_1716)"><path d="M1070.5 579L620.5 129C602.5 111 577.5 100 550 100H200C145 100 100 145 100 200V550C100 577.5 111 602.5 129.5 621L579.5 1071C597.5 1089 622.5 1100 650 1100C677.5 1100 702.5 1089 720.5 1070.5L1070.5 720.5C1089 702.5 1100 677.5 1100 650C1100 622.5 1088.5 597 1070.5 579ZM275 350C233.5 350 200 316.5 200 275C200 233.5 233.5 200 275 200C316.5 200 350 233.5 350 275C350 316.5 316.5 350 275 350Z" fill="black"/></g><defs><clipPath id="clip0_238_1716"><path width="24" fill="white" d="M0 0H1200V1200H0V0z"/></clipPath></defs></svg>
